X: 6164
T: Captain Sudley
R: reel
M: 4/4
K: Dmajor
A|DADA DEFG|A4 A4|d3 c d2 e2|f4 A4|
fffg a2 f2|edef g2 e2|f2 d2 e2 c2|d4 d3 A||
DADA DEFG|A4 A4|d3 c d2 e2|f2 g2 a4|
A2 F2 G2 FG|A2 F2 G2 F/G/A|BAGF AGFE|D4 D4||
f3 e f2 g2|a4 f4|e2 ed cdef|g4 e4|
fffg a2 f2|edef g2 e2|f2 d2 e2 c2|d4 d3 A||
DADA DEFG|A4 A4|d2 dc defd|e2 c2 A4|
A4 G2 F2|GFGA B2 G2|F2 A2 AGFE|D4 D4||

